svgs/solid/chess-king-piece.svg

<svg xmlns="http://www.w3.org/2000/svg" viewBox="0 0 256 512"><!--! Font Awesome Pro 6.0.0-alpha3 by @fontawesome - https://fontawesome.com License - https://fontawesome.com/license (Commercial License) --><path d="M73.1 208H64C55.12 208 48 215.1 48 224v16C48 248.9 55.12 256 64 256h16C79.75 299.1 74.5 342.1 64 384h128c-10.5-41.88-15.75-84.88-16-128H192c8.875 0 16-7.125 16-16V224c0-8.875-7.125-16-16-16h-10l33.88-90.38c1.875-4.875 1.125-10.38-1.876-14.75C211 98.62 206.1 96 200.9 96H144V64h24c4.375 0 8-3.625 8-8v-16C176 35.62 172.4 32 168 32H144V8C144 3.625 140.4 0 136 0h-16C115.6 0 112 3.625 112 8V32H88C83.63 32 80 35.62 80 40v16C80 60.38 83.63 64 88 64H112v32H55.12C49.88 96 44.88 98.62 41.88 102.9c-3 4.375-3.625 9.875-1.75 14.75L73.1 208zM247.1 459.6L224 448v-16c0-8.875-7.125-16-16-16h-160C39.12 416 32 423.1 32 432V448l-23.12 11.62C3.375 462.2 0 467.9 0 473.9V496C0 504.9 7.125 512 16 512h224c8.875 0 16-7.125 16-16v-22.12C256 467.9 252.6 462.2 247.1 459.6z"/></svg>

<svg xmlns="http://www.w3.org/2000/svg" viewBox="0 0 256 512"><!-- Font Awesome Pro 6.0.0-alpha2 by @fontawesome - https://fontawesome.com License - https://fontawesome.com/license (Commercial License) --><path d="M73.999 208H64C55.125 208 48 215.125 48 224V240C48 248.875 55.125 256 64 256H80C79.75 299.125 74.5 342.125 64 384H192C181.5 342.125 176.25 299.125 176 256H192C200.875 256 208 248.875 208 240V224C208 215.125 200.875 208 192 208H181.999L215.875 117.625C217.75 112.75 217 107.25 213.999 102.875C211 98.625 206.125 96 200.875 96H144V64H168C172.375 64 176 60.375 176 56V40C176 35.625 172.375 32 168 32H144V8C144 3.625 140.375 0 136 0H120C115.625 0 112 3.625 112 8V32H88C83.625 32 80 35.625 80 40V56C80 60.375 83.625 64 88 64H112V96H55.125C49.875 96 44.875 98.625 41.875 102.875C38.875 107.25 38.25 112.75 40.125 117.625L73.999 208ZM247.125 459.625L224 448V432C224 423.125 216.875 416 208 416H48C39.125 416 32 423.125 32 432V448L8.875 459.625C3.375 462.25 0 467.875 0 473.875V496C0 504.875 7.125 512 16 512H240C248.875 512 256 504.875 256 496V473.875C256 467.875 252.625 462.25 247.125 459.625Z"/></svg>
